!!!OTL: Rich Counsellor
!!!ONM: 24.
**kern
*clefG2
*k[b-]
*F:
*M3/4
*MM92
{8c
=1
16f
16f
8e
4d
8c
8c
=2
8f
8a
4.a}
{8f
=3
8e
8d
4.c
8c
=4
8c
4.f
8r}
{8f
=5
8e
8d
4.c
8c
=6
8c
8a
4.a}
{8a
=7
8g
8f
4.c
8c
=8
8d
4.f
8r}
{8c
=9
8f
8a
4.cc
8cc
=10
8dd
8cc
4.a}
{8c
=11
8f
8a
4.cc
8c
=12
8a
4.cc
8r}
{16cc
16cc
=13
8dd
8cc
4.a
8f
=14
8g
8a
(8a
4g)}
{8f
=15
8e
8d
4.c
8c
=16
8d
4.f
4r}
==
*-
!!!CNT: Folksongs of Maritime Canada
!!!MRD: 1928///-1932///
!!!OCL: Helen Creighton
!!!YOR: Songs and Ballads from Nova Scotia
!!!PPR: J.M. Dent & Sons, Limited
!!!PPP: Toronto, Canada
!!!PDT: 1932///
!!!reprint: Dover Publications, 1992: ISBN 0-486-21703-5
!!!ENC1: Craig Stuart Sapp (music and bibliographic data)                       
!!!ENC2: Marcus Pearce (phrase markings and key designations)                   
!!!ENC3: Darrell Conklin (phrase markings and key designations)   
!!!END: 2002/04/10/
!!!EEV: 2004/06/05
!!!MPN: Mr. Ben Henneberry
!!!PPG: 47
!!!EFL: 24/152
!!!ARE: Canada; Nova Scotia
!!!verses: 11
!!!VTS: 3878644720
